!!!OTL: GO FOR IT！！
**kern	**kern	**kern	**kern	**text	**kern	**text	**kern	**text	**kern	**text
*part6	*part5	*part5	*part4	*part4	*part3	*part3	*part2	*part2	*part1	*part1
*staff7	*staff6	*staff5	*staff4	*staff4	*staff3	*staff3	*staff2	*staff2	*staff1	*staff1
*I"钢琴	*I"ピアノ	*	*I"钢琴	*	*I"钢琴	*	*I"钢琴	*	*I"钢琴	*
*	*I'Pno.	*	*	*	*	*	*	*	*	*
*clefF4	*clefF4	*clefG2	*clefGv2	*	*clefGv2	*	*clefG2	*	*clefG2	*
*k[f#c#g#]	*k[f#c#g#]	*k[f#c#g#]	*k[f#c#g#]	*	*k[f#c#g#]	*	*k[f#c#g#]	*	*k[f#c#g#]	*
*M4/4	*M4/4	*M4/4	*M4/4	*	*M4/4	*	*M4/4	*	*M4/4	*
=1	=1	=1	=1	=1	=1	=1	=1	=1	=1	=1
1r	1r	1r	1r	.	1r	.	1r	.	2r	.
.	.	.	.	.	.	.	.	.	4e	.
.	.	.	.	.	.	.	.	.	4dd	.
=2	=2	=2	=2	=2	=2	=2	=2	=2	=2	=2
4AA	1r	1r	4r	.	4r	.	4r	.	1cc#	.
8r	.	.	2.c#	.	2.e	.	2.a	yeah~	.	.
16AALL	.	.	.	.	.	.	.	.	.	.
16AAJJ	.	.	.	.	.	.	.	.	.	.
8.AAL	.	.	.	.	.	.	.	.	.	.
8.AA	.	.	.	.	.	.	.	.	.	.
8AAJ	.	.	.	.	.	.	.	.	.	.
=3	=3	=3	=3	=3	=3	=3	=3	=3	=3	=3
4C#	1r	1r	1B	.	1e#X	.	1g#	.	1b	.
8r	.	.	.	.	.	.	.	.	.	.
4C#	.	.	.	.	.	.	.	.	.	.
4C#	.	.	.	.	.	.	.	.	.	.
8C#	.	.	.	.	.	.	.	.	.	.
=4	=4	=4	=4	=4	=4	=4	=4	=4	=4	=4
4FF#	1r	1r	1c#	.	1f#	.	1a	.	1a	.
8r	.	.	.	.	.	.	.	.	.	.
4FF#	.	.	.	.	.	.	.	.	.	.
4FF#	.	.	.	.	.	.	.	.	.	.
8FF#	.	.	.	.	.	.	.	.	.	.
=5	=5	=5	=5	=5	=5	=5	=5	=5	=5	=5
4EE	1r	1r	4B	.	4d	.	4gn	go	4r	.
4EE	.	.	4B	.	4d	.	4g	go	4b	.
8AAL	.	.	8c#L	.	8eL	.	8aL	go	4a	.
8AAJ	.	.	8c#J	.	8eJ	.	8aJ	for	.	.
4AA	.	.	4c#	.	4e	.	4a	it	4ee	.
=6	=6	=6	=6	=6	=6	=6	=6	=6	=6	=6
4D	1r	1r	4r	.	4r	.	4r	.	8dd	.
.	.	.	.	.	.	.	.	.	[4.ee	.
8r	.	.	2.d	.	2.f#	.	2.a	yeah~	.	.
4D	.	.	.	.	.	.	.	.	.	.
.	.	.	.	.	.	.	.	.	8eeL]	.
4D	.	.	.	.	.	.	.	.	8dd	.
.	.	.	.	.	.	.	.	.	8cc#	.
8D	.	.	.	.	.	.	.	.	8cc#J	.
=7	=7	=7	=7	=7	=7	=7	=7	=7	=7	=7
4C#	1r	1r	1c#	.	1e	.	1a	.	[2dd	.
8r	.	.	.	.	.	.	.	.	.	.
4C#	.	.	.	.	.	.	.	.	.	.
.	.	.	.	.	.	.	.	.	8ddL]	.
8C#	.	.	.	.	.	.	.	.	8cc#J	.
4C#	.	.	.	.	.	.	.	.	8bL	.
.	.	.	.	.	.	.	.	.	16cc#L	.
.	.	.	.	.	.	.	.	.	16bJJ	.
=8	=8	=8	=8	=8	=8	=8	=8	=8	=8	=8
4BB	1r	1r	1d	.	1f#	.	1a	.	2.a	.
8r	.	.	.	.	.	.	.	.	.	.
4BB	.	.	.	.	.	.	.	.	.	.
8BB	.	.	.	.	.	.	.	.	.	.
4BB	.	.	.	.	.	.	.	.	4r	.
=9	=9	=9	=9	=9	=9	=9	=9	=9	=9	=9
8EL	1r	1r	4.e	.	4.g#	.	4.b	da	1r	.
8EJ	.	.	.	.	.	.	.	.	.	.
8r	.	.	.	.	.	.	.	.	.	.
2EE	.	.	2e	.	2g#	.	2b	ta	.	.
8r	.	.	8r	.	8r	.	8r	.	.	.
=10	=10	=10	=10	=10	=10	=10	=10	=10	=10	=10
4.AA	1r	1r	1A	.	1e	.	4.dd	fu~	1r	.
4.AA	.	.	.	.	.	.	[8cc#	.	.	.
.	.	.	.	.	.	.	2cc#]	.	.	.
8r	.	.	.	.	.	.	.	.	.	.
8EE	.	.	.	.	.	.	.	.	.	.
=11	=11	=11	=11	=11	=11	=11	=11	=11	=11	=11
4.AA	2.r	2.r	1A	.	1c#	.	4.b	woo~	1r	.
4.AA	.	.	.	.	.	.	[8cc#	.	.	.
.	.	.	.	.	.	.	2cc#]	.	.	.
4r	4r	4r	.	.	.	.	.	.	.	.
=12	=12	=12	=12	=12	=12	=12	=12	=12	=12	=12
*k[b-]	*k[b-]	*k[b-]	*k[b-]	*	*k[b-]	*	*k[b-]	*	*k[b-]	*
4.FF	1r	1r	4.c	.	4.f	.	4.a	tu	2r	.
[8FF	.	.	[8c	.	[8f	.	[8a	tu~	.	.
4FF]	.	.	2c]	.	2f]	.	2a]	.	8gL	.
.	.	.	.	.	.	.	.	.	8a	.
4FF	.	.	.	.	.	.	.	.	8a	.
.	.	.	.	.	.	.	.	.	[8gJ	.
=13	=13	=13	=13	=13	=13	=13	=13	=13	=13	=13
4.EE	1r	1r	4.c	.	4.e	.	4.g	.	8gL]	.
.	.	.	.	.	.	.	.	.	8f	.
.	.	.	.	.	.	.	.	.	8g	.
[8EE	.	.	[8c	.	[8e	.	[8g	.	8fJ	.
4EE]	.	.	2c]	.	2e]	.	2g]	.	4g	.
4EE	.	.	.	.	.	.	.	.	8aL	.
.	.	.	.	.	.	.	.	.	[8fJ	.
=14	=14	=14	=14	=14	=14	=14	=14	=14	=14	=14
4.D	1r	1r	4.c	.	4.d	.	4.f	.	4f]	.
.	.	.	.	.	.	.	.	.	4r	.
[8D	.	.	[8c	.	[8d	.	[8f	.	.	.
4D]	.	.	2c]	.	2d]	.	2f]	.	8r	.
.	.	.	.	.	.	.	.	.	8dL	.
4D	.	.	.	.	.	.	.	.	8f	.
.	.	.	.	.	.	.	.	.	8dJ	.
=15	=15	=15	=15	=15	=15	=15	=15	=15	=15	=15
4.C	1r	1r	4.c	.	4.e	.	4.g	.	8fL	.
.	.	.	.	.	.	.	.	.	8f	.
.	.	.	.	.	.	.	.	.	8f	.
[8C	.	.	[8c	.	[8e	.	[8g	.	8dJ	.
4C]	.	.	2c]	.	2e]	.	2g]	.	4g	.
4C	.	.	.	.	.	.	.	.	4a	.
=16	=16	=16	=16	=16	=16	=16	=16	=16	=16	=16
4.BB-	1r	1r	4.B-	.	4.d	.	4.f	.	4r	.
.	.	.	.	.	.	.	.	.	4f	.
[8BB-	.	.	[8B-	.	[8d	.	[8f	.	.	.
4BB-]	.	.	2B-]	.	2d]	.	2f]	.	8b-	.
.	.	.	.	.	.	.	.	.	4b-	.
4BB-	.	.	.	.	.	.	.	.	.	.
.	.	.	.	.	.	.	.	.	[8a	.
=17	=17	=17	=17	=17	=17	=17	=17	=17	=17	=17
4.AA	1r	1r	4.c	.	4.f	.	4.g	.	8aL]	.
.	.	.	.	.	.	.	.	.	8a	.
.	.	.	.	.	.	.	.	.	8a	.
[8AA	.	.	[8c	.	[8f	.	[8g	.	8aJ	.
4AA]	.	.	2c]	.	2f]	.	2g]	.	8aL	.
.	.	.	.	.	.	.	.	.	8g	.
4AA	.	.	.	.	.	.	.	.	8f	.
.	.	.	.	.	.	.	.	.	8aJ	.
=18	=18	=18	=18	=18	=18	=18	=18	=18	=18	=18
4.C	1r	1r	4.c	.	4.f	.	4.g	.	4a	.
.	.	.	.	.	.	.	.	.	8gL	.
[8C	.	.	[8c	.	[8f	.	[8g	.	[8gJ	.
4C]	.	.	2c]	.	2f]	.	2g]	.	8g]	.
.	.	.	.	.	.	.	.	.	4f	.
4C	.	.	.	.	.	.	.	.	.	.
.	.	.	.	.	.	.	.	.	[8g	.
=19	=19	=19	=19	=19	=19	=19	=19	=19	=19	=19
4.C	1r	1r	4.c	.	4.d	.	4.g	.	4g]	.
.	.	.	.	.	.	.	.	.	4r	.
[8C	.	.	[8c	.	[8e	.	[8g	.	.	.
4C]	.	.	2c]	.	2e]	.	2g]	.	2r	.
4C	.	.	.	.	.	.	.	.	.	.
=20	=20	=20	=20	=20	=20	=20	=20	=20	=20	=20
4.FF	1r	1r	4.r	.	4.f	.	4.a	.	4r	.
.	.	.	.	.	.	.	.	.	8r	.
[8FF	.	.	8A	ほ	[8f	.	[8a	.	8c	.
4FF]	.	.	8fL	か	2f]	.	2a]	.	8aL	.
.	.	.	8f	の	.	.	.	.	8a	.
4FF	.	.	8f	こ	.	.	.	.	8a	.
.	.	.	[8eJ	と	.	.	.	.	[8gJ	.
=21	=21	=21	=21	=21	=21	=21	=21	=21	=21	=21
4.EE	1r	1r	8eL]	.	4.e	.	4.g	.	8gL]	.
.	.	.	8d	も	.	.	.	.	8f	.
.	.	.	8e	り	.	.	.	.	8g	.
[8EE	.	.	8dJ	あ	[8e	.	[8g	.	8fJ	.
4EE]	.	.	4e	がっ	2e]	.	2g]	.	4g	.
4EE	.	.	8fL	て	.	.	.	.	8aL	.
.	.	.	[8dJ	る	.	.	.	.	[8fJ	.
=22	=22	=22	=22	=22	=22	=22	=22	=22	=22	=22
4.D	1r	1r	4d]	.	4.d	.	4.f	.	4f]	.
.	.	.	4r	.	.	.	.	.	4r	.
[8D	.	.	.	.	[8d	.	[8f	.	.	.
4D]	.	.	2r	.	2d]	.	2f]	.	8r	.
.	.	.	.	.	.	.	.	.	8dL	.
4D	.	.	.	.	.	.	.	.	8f	.
.	.	.	.	.	.	.	.	.	8dJ	.
=23	=23	=23	=23	=23	=23	=23	=23	=23	=23	=23
4.C	1r	1r	4.c	.	4.e	.	4.g	.	8fL	.
.	.	.	.	.	.	.	.	.	8d	.
.	.	.	.	.	.	.	.	.	8f	.
[8C	.	.	[8c	.	[8e	.	[8g	.	8dJ	.
4C]	.	.	2c]	.	2e]	.	2g]	.	4cc	.
4C	.	.	.	.	.	.	.	.	4a	.
=24	=24	=24	=24	=24	=24	=24	=24	=24	=24	=24
4.BB-	1r	1r	4.B-	.	4.d	.	4.r	.	4r	.
.	.	.	.	.	.	.	.	.	8r	.
[8BB-	.	.	[8B-	.	[8d	.	8a	ま	8f	.
4BB-]	.	.	2B-]	.	2d]	.	8ddL	た	8b-L	.
.	.	.	.	.	.	.	8dd	ひ	8b-	.
4BB-	.	.	.	.	.	.	8ee	と	8cc	.
.	.	.	.	.	.	.	[8ccJ	り	[8aJ	.
=25	=25	=25	=25	=25	=25	=25	=25	=25	=25	=25
4.AA	1r	1r	4.c	.	4.f	.	8ccL]	.	8aL]	.
.	.	.	.	.	.	.	8ccJ	で	8aJ	.
.	.	.	.	.	.	.	8r	.	8r	.
[8AA	.	.	[8c	.	[8f	.	[8cc	か	[8a	.
4AA]	.	.	2c]	.	2f]	.	8ccL]	っ	8aL]	.
.	.	.	.	.	.	.	8b-	て	8g	.
4AA	.	.	.	.	.	.	8a	に	8f	.
.	.	.	.	.	.	.	8ccJ	へ	8aJ	.
=26	=26	=26	=26	=26	=26	=26	=26	=26	=26	=26
4.GG	1r	1r	4.c	.	4.f	.	4cc	こ	4a	.
.	.	.	.	.	.	.	8b-L	ん	8gL	.
[8GG	.	.	[8c	.	[8f	.	[8b-J	で	[8gJ	.
4GG]	.	.	2c]	.	2f]	.	8b-L]	.	8gL]	.
.	.	.	.	.	.	.	8a	る	8f	.
4GG	.	.	.	.	.	.	8a	だ	8f	.
.	.	.	.	.	.	.	[8b-J	け	[8gJ	.
=27	=27	=27	=27	=27	=27	=27	=27	=27	=27	=27
4C	1r	1r	4.c	.	4.d	.	4b-]	.	4g]	.
4C	.	.	.	.	.	.	4r	.	8r	.
.	.	.	8r	.	8r	.	.	.	8r	.
4C	.	.	2r	.	2r	.	2r	.	8aL	.
.	.	.	.	.	.	.	.	.	8a	.
4BB-	.	.	.	.	.	.	.	.	8b-	.
.	.	.	.	.	.	.	.	.	8b-J	.
=28	=28	=28	=28	=28	=28	=28	=28	=28	=28	=28
4.BB-	1r	1r	2.c	.	1e	.	1g	fu~	4cc	.
.	.	.	.	.	.	.	.	.	8ccL	.
[8BB-	.	.	.	.	.	.	.	.	8aJ	.
4BB-]	.	.	.	.	.	.	.	.	4cc	.
4BB-	.	.	8r	.	.	.	.	.	8ddL	.
.	.	.	8f	ま	.	.	.	.	8ddJ	.
=29	=29	=29	=29	=29	=29	=29	=29	=29	=29	=29
4.AA	1r	1r	8fL	ち	1f	.	1a	woo~	8ccL	.
.	.	.	8c	う	.	.	.	.	8f	.
.	.	.	8c	け	.	.	.	.	8f	.
[8AA	.	.	[8cJ	も	.	.	.	.	[8fJ	.
4AA]	.	.	4c]	.	.	.	.	.	4f]	.
4AA	.	.	4r	.	.	.	.	.	8r	.
.	.	.	.	.	.	.	.	.	[8c	.
=30	=30	=30	=30	=30	=30	=30	=30	=30	=30	=30
4.GG	1r	1r	1B-	.	1d	.	1f	fu~	8cL]	.
.	.	.	.	.	.	.	.	.	8d	.
.	.	.	.	.	.	.	.	.	8f	.
[8GG	.	.	.	.	.	.	.	.	8dJ	.
4GG]	.	.	.	.	.	.	.	.	8fL	.
.	.	.	.	.	.	.	.	.	8d	.
4GG	.	.	.	.	.	.	.	.	8f	.
.	.	.	.	.	.	.	.	.	8dJ	.
=31	=31	=31	=31	=31	=31	=31	=31	=31	=31	=31
4.FF	1r	1r	8cL	.	8eL	.	8ccL	か	8aL	.
.	.	.	8d	.	8f	.	8dd	み	8b-	.
.	.	.	8c	.	8e	.	8cc	が	8a	.
[8FF	.	.	8B-J	.	8dJ	.	8b-J	た	8gJ	.
4FF]	.	.	8A	.	8c	.	8a	も	8f	.
.	.	.	4.A	.	4.c	.	4.a	.	4.f	.
4FF	.	.	.	.	.	.	.	.	.	.
=32	=32	=32	=32	=32	=32	=32	=32	=32	=32	=32
4.BB-	1r	1r	4r	.	4r	.	4r	.	4r	.
.	.	.	8cL	.	8fL	.	8aL	か	8ccL	.
[8BB-	.	.	8AJ	.	8cJ	.	8fJ	な	8aJ	.
4BB-]	.	.	8cL	.	8fL	.	8aL	り	8ccL	.
.	.	.	8A	.	8c	.	8f	い	8a	.
4BB-	.	.	8d	.	8g	.	8b-	い	8dd	.
.	.	.	8cJ	.	8fJ	.	8aJ	は	8ccJ	.
=33	=33	=33	=33	=33	=33	=33	=33	=33	=33	=33
4.AA	1r	1r	8cL	.	8fL	.	8aL	ず	8ccL	.
.	.	.	8F	.	8A	.	8c	だ	8f	.
.	.	.	8G	.	8B-	.	8e	け	8g	.
[8AA	.	.	[8AJ	.	[8cJ	.	[8fJ	ど	[8aJ	.
4AA]	.	.	4A]	.	4c]	.	4f]	.	4a]	.
4AA	.	.	4r	.	4r	.	4r	.	8r	.
.	.	.	.	.	.	.	.	.	8a	.
=34	=34	=34	=34	=34	=34	=34	=34	=34	=34	=34
4.GG	1r	1r	1B-	.	1d	.	1g	woo	8b-L	.
.	.	.	.	.	.	.	.	.	8b-	.
.	.	.	.	.	.	.	.	.	8a	.
[8GG	.	.	.	.	.	.	.	.	8aJ	.
4GG]	.	.	.	.	.	.	.	.	8gL	.
.	.	.	.	.	.	.	.	.	8f	.
4GG	.	.	.	.	.	.	.	.	8f	.
.	.	.	.	.	.	.	.	.	8fJ	.
=35	=35	=35	=35	=35	=35	=35	=35	=35	=35	=35
4.C	1r	1r	4.B-	.	4.d	.	4.g	oh	8ddL	.
.	.	.	.	.	.	.	.	.	8cc	.
.	.	.	.	.	.	.	.	.	8cc	.
4.C	.	.	4.B-	.	4.d	.	4.g	oh	[8ccJ	.
.	.	.	.	.	.	.	.	.	4.cc]	.
4GG	.	.	4B-	.	4d	.	4g	oh	.	.
.	.	.	.	.	.	.	.	.	8dd	.
=36	=36	=36	=36	=36	=36	=36	=36	=36	=36	=36
8.DL	1r	1r	1d	.	1f#X	.	1a	yeah~	2dd	.
8.DJ	.	.	.	.	.	.	.	.	.	.
4.D	.	.	.	.	.	.	.	.	.	.
.	.	.	.	.	.	.	.	.	2r	.
4DD	.	.	.	.	.	.	.	.	.	.
=37	=37	=37	=37	=37	=37	=37	=37	=37	=37	=37
*k[f#c#g#]	*k[f#c#g#]	*k[f#c#g#]	*k[f#c#g#]	*	*k[f#c#g#]	*	*k[f#c#g#]	*	*k[f#c#g#]	*
4.AA	1r	1r	4c#	.	4e	.	4a	ず	4b	.
.	.	.	4c#	.	4e	.	4a	っ	4cc#	.
[8AA	.	.	.	.	.	.	.	.	.	.
4AA]	.	.	4c#	.	4e	.	4a	と	4b	.
4AA	.	.	4c#	.	4e	.	4a	ま	4a	.
=38	=38	=38	=38	=38	=38	=38	=38	=38	=38	=38
4.C#	1r	1r	4c#	.	4e#X	.	4g#	え	4b	.
.	.	.	4c#	.	4e#	.	4g#	か	4cc#	.
[8C#	.	.	.	.	.	.	.	.	.	.
4C#]	.	.	2c#	.	2e#	.	2g#	ら	4b	.
4C#	.	.	.	.	.	.	.	.	4a	.
=39	=39	=39	=39	=39	=39	=39	=39	=39	=39	=39
4.FF#	1r	1r	1c#	.	1e	.	1a	woo~	4e	.
.	.	.	.	.	.	.	.	.	8f#L	.
[8FF#	.	.	.	.	.	.	.	.	8f#J	.
4FF#]	.	.	.	.	.	.	.	.	4a	.
4FF#	.	.	.	.	.	.	.	.	8bL	.
.	.	.	.	.	.	.	.	.	8aJ	.
=40	=40	=40	=40	=40	=40	=40	=40	=40	=40	=40
4.EE	1r	1r	4B	.	4d	.	4gn	すき	4cc#	.
.	.	.	4B	.	4d	.	4g	でし	4r	.
8r	.	.	.	.	.	.	.	.	.	.
8.AAL	.	.	2c#	.	2e	.	2a	た	8r	.
.	.	.	.	.	.	.	.	.	8cc#L	.
8.BB	.	.	.	.	.	.	.	.	.	.
.	.	.	.	.	.	.	.	.	8b	.
8C#J	.	.	.	.	.	.	.	.	8aJ	.
=41	=41	=41	=41	=41	=41	=41	=41	=41	=41	=41
4.D	1r	1r	4d	.	4f#	.	4a	せい	4b	.
.	.	.	4d	.	4f#	.	4a	いっ	4cc#	.
[8D	.	.	.	.	.	.	.	.	.	.
4D]	.	.	4d	.	4f#	.	4a	ぱい	4b	.
4D	.	.	4d	.	4f#	.	4a	の	4a	.
=42	=42	=42	=42	=42	=42	=42	=42	=42	=42	=42
4.C#	1r	1r	2c#	.	2e	.	2a	oh~	4b	.
.	.	.	.	.	.	.	.	.	4cc#	.
[8C#	.	.	.	.	.	.	.	.	.	.
4C#]	.	.	8c#L	.	8eL	.	8aL	ぜ	8eeL	.
.	.	.	8c#	.	8e	.	8a	ん	8a	.
4C#	.	.	8c#J	.	8eJ	.	8aJ	ぶ	8aJ	.
.	.	.	8r	.	8r	.	8r	.	8r	.
=43	=43	=43	=43	=43	=43	=43	=43	=43	=43	=43
4.BB	1r	1r	8dL	.	8f#L	.	8bL	い	8ddL	.
.	.	.	8d	.	8f#	.	8b	ま	8dd	.
.	.	.	8c#	.	8e	.	8a	す	8cc#	.
[8BB	.	.	8c#J	.	8eJ	.	8aJ	ぐ	8cc#J	.
4BB]	.	.	8BL	.	8dL	.	8g#L	つ	8bL	.
.	.	.	8A	.	8c#	.	8f#	た	8a	.
4BB	.	.	8A	.	8c#	.	8f#	え	8a	.
.	.	.	[8AJ	.	[8c#J	.	[8f#J	た	[8aJ	.
=44	=44	=44	=44	=44	=44	=44	=44	=44	=44	=44
4.EE	1r	1r	8AL]	.	8c#L]	.	8f#L]	.	8aL]	.
.	.	.	8BJ	.	8eJ	.	8g#J	い	8bJ	.
.	.	.	4B	.	4e	.	4g#	の	4b	.
[8EE	.	.	.	.	.	.	.	.	.	.
4EE]	.	.	2r	.	2r	.	2r	.	4r	.
4EE	.	.	.	.	.	.	.	.	8bL	.
.	.	.	.	.	.	.	.	.	8aJ	.
=45	=45	=45	=45	=45	=45	=45	=45	=45	=45	=45
4.AA	1r	1r	1c#	.	1e	.	1a	oh	8bL	.
.	.	.	.	.	.	.	.	.	8b	.
.	.	.	.	.	.	.	.	.	8cc#	.
[8AA	.	.	.	.	.	.	.	.	8cc#J	.
4AA]	.	.	.	.	.	.	.	.	8bL	.
.	.	.	.	.	.	.	.	.	8aJ	.
4AA	.	.	.	.	.	.	.	.	4a	.
=46	=46	=46	=46	=46	=46	=46	=46	=46	=46	=46
4.C#	1r	1r	1B	.	1e#X	.	1g#	.	8ddL	.
.	.	.	.	.	.	.	.	.	8dd	.
.	.	.	.	.	.	.	.	.	8cc#	.
[8C#	.	.	.	.	.	.	.	.	8cc#J	.
4C#]	.	.	.	.	.	.	.	.	8bL	.
.	.	.	.	.	.	.	.	.	8aJ	.
4C#	.	.	.	.	.	.	.	.	4a	.
=47	=47	=47	=47	=47	=47	=47	=47	=47	=47	=47
4.FF#	1r	1r	2c#	.	2e	.	2a	.	8eeL	.
.	.	.	.	.	.	.	.	.	8ff#	.
.	.	.	.	.	.	.	.	.	8ee	.
8FF#	.	.	.	.	.	.	.	.	8eeJ	.
4.EE	.	.	4r	.	4r	.	4r	.	8ddL	.
.	.	.	.	.	.	.	.	.	8dd	.
.	.	.	8r	.	8r	.	8r	.	8cc#	.
[8BB	.	.	[8B	.	[8d#X	.	[8f#	oh	8cc#J	.
=48	=48	=48	=48	=48	=48	=48	=48	=48	=48	=48
8BB]	1r	1r	8B]	.	8d#]	.	8f#]	.	8bL	.
4r	.	.	4r	.	4r	.	4r	.	8b	.
.	.	.	.	.	.	.	.	.	8cc#	.
4BB	.	.	4B	.	4d#X	.	4f#	もう	8bJ	.
.	.	.	.	.	.	.	.	.	8a	.
8BBL	.	.	8B	.	8d#	.	8f#	ない	4a	.
8AA	.	.	4r	.	4r	.	4r	.	.	.
8FF#J	.	.	.	.	.	.	.	.	8r	.
=49	=49	=49	=49	=49	=49	=49	=49	=49	=49	=49
4.BB	1r	1r	1B	.	1d	.	1f#	oh~	8eL	.
.	.	.	.	.	.	.	.	.	8f#	.
.	.	.	.	.	.	.	.	.	8a	.
[8C#	.	.	.	.	.	.	.	.	8f#J	.
4C#]	.	.	.	.	.	.	.	.	8bL	.
.	.	.	.	.	.	.	.	.	8bJ	.
4D	.	.	.	.	.	.	.	.	4cc#	.
=50	=50	=50	=50	=50	=50	=50	=50	=50	=50	=50
1r	1r	1r	1r	.	1r	.	1r	.	1r	.
=51	=51	=51	=51	=51	=51	=51	=51	=51	=51	=51
4.D	1r	1r	4.A	.	4.e	.	4.f#	ah~	8eeL	.
.	.	.	.	.	.	.	.	.	8dd	.
.	.	.	.	.	.	.	.	.	8cc#	.
4.E	.	.	4.B	.	4.e	.	4.g#	.	8ddJ	.
.	.	.	.	.	.	.	.	.	8cc#L	.
.	.	.	.	.	.	.	.	.	8bJ	.
4AA	.	.	4c#	.	4e	.	4a	.	4a	.
=52	=52	=52	=52	=52	=52	=52	=52	=52	=52	=52
4.EE	1r	1r	1B	.	1e	.	1b	ah~	4b	.
.	.	.	.	.	.	.	.	.	8cc#L	.
[8EE	.	.	.	.	.	.	.	.	[8bJ	.
4EE]	.	.	.	.	.	.	.	.	8bL]	.
.	.	.	.	.	.	.	.	.	8a	.
4EE	.	.	.	.	.	.	.	.	8a	.
.	.	.	.	.	.	.	.	.	[8aJ	.
=53	=53	=53	=53	=53	=53	=53	=53	=53	=53	=53
4.AA	1r	1r	1A	.	1e	.	4.dd	fu~	1a]	.
4.AA	.	.	.	.	.	.	[8cc#	.	.	.
.	.	.	.	.	.	.	2cc#]	.	.	.
8r	.	.	.	.	.	.	.	.	.	.
8EE	.	.	.	.	.	.	.	.	.	.
=54	=54	=54	=54	=54	=54	=54	=54	=54	=54	=54
4.AA	2.r	2.r	1A	.	1c#	.	4.b	woo~	1r	.
4.AA	.	.	.	.	.	.	[8cc#	.	.	.
.	.	.	.	.	.	.	2cc#]	.	.	.
4r	4r	4r	.	.	.	.	.	.	.	.
=55	=55	=55	=55	=55	=55	=55	=55	=55	=55	=55
*k[b-]	*k[b-]	*k[b-]	*k[b-]	*	*k[b-]	*	*k[b-]	*	*k[b-]	*
[4.FF	1r	1r	4.c	.	4.f	.	4.a	fu	4r	.
.	.	.	.	.	.	.	.	.	8r	.
16FF]	.	.	[8c	.	[8f	.	[8a	fu~	8r	.
16r	.	.	.	.	.	.	.	.	.	.
2FF	.	.	2c]	.	2f]	.	2a]	.	8aL	.
.	.	.	.	.	.	.	.	.	8a	.
.	.	.	.	.	.	.	.	.	8a	.
.	.	.	.	.	.	.	.	.	[8gJ	.
=56	=56	=56	=56	=56	=56	=56	=56	=56	=56	=56
1EE	1r	1r	2c	.	2e	.	2g	fu~	8gL]	.
.	.	.	.	.	.	.	.	.	8f	.
.	.	.	.	.	.	.	.	.	8g	.
.	.	.	.	.	.	.	.	.	8fJ	.
.	.	.	8r	.	4r	.	4.r	.	4g	.
.	.	.	4.c	ah	.	.	.	.	.	.
.	.	.	.	.	4e	ah	.	.	8aL	.
.	.	.	.	.	.	.	8f	ah	[8fJ	.
=57	=57	=57	=57	=57	=57	=57	=57	=57	=57	=57
1D	1r	1r	1c	ah	4r	.	2r	.	4f]	.
.	.	.	.	.	2.d	ah	.	.	4r	.
.	.	.	.	.	.	.	4f	ah	8r	.
.	.	.	.	.	.	.	.	.	8dL	.
.	.	.	.	.	.	.	4cc	.	8f	.
.	.	.	.	.	.	.	.	.	8dJ	.
=58	=58	=58	=58	=58	=58	=58	=58	=58	=58	=58
2C	1r	1r	2c	.	2e	.	2a	ah~	8fL	.
.	.	.	.	.	.	.	.	.	8d	.
.	.	.	.	.	.	.	.	.	8f	.
.	.	.	.	.	.	.	.	.	8dJ	.
8r	.	.	8r	.	8r	.	8r	.	4f	.
[8AA	.	.	[8c	.	[8e	.	[8a	oh	.	.
4AA]	.	.	4c]	.	4e]	.	4a]	.	4g	.
=59	=59	=59	=59	=59	=59	=59	=59	=59	=59	=59
4.BB-	1r	1r	4.B-	.	4.d	.	4.f	tu	4r	.
.	.	.	.	.	.	.	.	.	8r	.
[8BB-	.	.	[8B-	.	[8d	.	[8f	tu~	8f	.
4BB-]	.	.	2B-]	.	2d]	.	2f]	.	8b-L	.
.	.	.	.	.	.	.	.	.	8b-	.
4BB-	.	.	.	.	.	.	.	.	8b-	.
.	.	.	.	.	.	.	.	.	[8aJ	.
=60	=60	=60	=60	=60	=60	=60	=60	=60	=60	=60
4.AA	1r	1r	4.c	.	4.f	.	4.g	.	8aL]	.
.	.	.	.	.	.	.	.	.	8aJ	.
.	.	.	.	.	.	.	.	.	8r	.
[8AA	.	.	[8c	.	[8f	.	[8g	.	[8a	.
4AA]	.	.	2c]	.	2f]	.	2g]	.	8aL]	.
.	.	.	.	.	.	.	.	.	8g	.
4AA	.	.	.	.	.	.	.	.	8f	.
.	.	.	.	.	.	.	.	.	8aJ	.
=61	=61	=61	=61	=61	=61	=61	=61	=61	=61	=61
4.GG	1r	1r	4.c	.	4.f	.	4cc	て	4a	.
.	.	.	.	.	.	.	8b-L	く	8gL	.
[8GG	.	.	[8c	.	[8f	.	[8b-J	れ	[8gJ	.
4GG]	.	.	2c]	.	2f]	.	8b-L]	.	8gL]	.
.	.	.	.	.	.	.	8a	た	8f	.
4GG	.	.	.	.	.	.	8a	の	8f	.
.	.	.	.	.	.	.	[8b-J	に	[8gJ	.
=62	=62	=62	=62	=62	=62	=62	=62	=62	=62	=62
4C	1r	1r	4.c	.	4.d	.	4b-]	.	4g]	.
4C	.	.	.	.	.	.	4r	.	8r	.
.	.	.	8r	.	8r	.	.	.	8r	.
4C	.	.	2r	.	2r	.	2r	.	8aL	.
.	.	.	.	.	.	.	.	.	8a	.
4BB-	.	.	.	.	.	.	.	.	8b-	.
.	.	.	.	.	.	.	.	.	8b-J	.
=63	=63	=63	=63	=63	=63	=63	=63	=63	=63	=63
4.BB-	1r	1r	2.c	.	1e	.	1g	fu~	4cc	.
.	.	.	.	.	.	.	.	.	8ccL	.
[8BB-	.	.	.	.	.	.	.	.	8aJ	.
4BB-]	.	.	.	.	.	.	.	.	4cc	.
4BB-	.	.	8r	.	.	.	.	.	8ddL	.
.	.	.	8f	あ	.	.	.	.	8ddJ	.
=64	=64	=64	=64	=64	=64	=64	=64	=64	=64	=64
4.AA	1r	1r	8fL	い	1f	.	1a	woo	8ccL	.
.	.	.	8c	しょ	.	.	.	.	8f	.
.	.	.	8c	う	.	.	.	.	8f	.
[8AA	.	.	[8cJ	も	.	.	.	.	[8fJ	.
4AA]	.	.	4c]	.	.	.	.	.	4f]	.
4AA	.	.	4r	.	.	.	.	.	8r	.
.	.	.	.	.	.	.	.	.	[8c	.
=65	=65	=65	=65	=65	=65	=65	=65	=65	=65	=65
4.GG	1r	1r	2.B-	.	2.d	.	2.f	fu~	8cL]	.
.	.	.	.	.	.	.	.	.	8d	.
.	.	.	.	.	.	.	.	.	8f	.
[8GG	.	.	.	.	.	.	.	.	8dJ	.
4GG]	.	.	.	.	.	.	.	.	8fL	.
.	.	.	.	.	.	.	.	.	8d	.
4GG	.	.	8r	.	8r	.	8r	.	8f	.
.	.	.	8G	.	8B-	.	8g	し	8dJ	.
=66	=66	=66	=66	=66	=66	=66	=66	=66	=66	=66
4.FF	1r	1r	8cL	.	8eL	.	8ccL	ん	8aL	.
.	.	.	8d	.	8f	.	8dd	ちょ	8b-	.
.	.	.	8cJ	.	8eJ	.	8ccJ	う	8aJ	.
[8FF	.	.	4B-	.	4d	.	4b-	さ	4g	.
4FF]	.	.	.	.	.	.	.	.	.	.
.	.	.	8A	.	8c	.	8a	も	8f	.
4FF	.	.	4r	.	4r	.	4r	.	4r	.
=67	=67	=67	=67	=67	=67	=67	=67	=67	=67	=67
4.BB-	1r	1r	4r	.	4r	.	4r	.	4r	.
.	.	.	8cL	.	8fL	.	8aL	か	8ccL	.
[8BB-	.	.	8AJ	.	8cJ	.	8fJ	な	8aJ	.
4BB-]	.	.	8cL	.	8fL	.	8aL	り	8ccL	.
.	.	.	8A	.	8c	.	8f	い	8a	.
4BB-	.	.	8d	.	8g	.	8b-	い	8dd	.
.	.	.	8cJ	.	8fJ	.	8aJ	は	8ccJ	.
=68	=68	=68	=68	=68	=68	=68	=68	=68	=68	=68
4.AA	1r	1r	8cL	.	8fL	.	8aL	ず	8ccL	.
.	.	.	8F	.	8A	.	8c	だ	8f	.
.	.	.	8G	.	8B-	.	8e	け	8g	.
[8AA	.	.	[8AJ	.	[8cJ	.	[8fJ	ど	[8aJ	.
4AA]	.	.	4A]	.	4c]	.	4f]	.	4a]	.
4AA	.	.	4r	.	4r	.	4r	.	8r	.
.	.	.	.	.	.	.	.	.	8a	.
=69	=69	=69	=69	=69	=69	=69	=69	=69	=69	=69
4.GG	1r	1r	1B-	.	1d	.	1g	woo	8b-L	.
.	.	.	.	.	.	.	.	.	8b-	.
.	.	.	.	.	.	.	.	.	8a	.
[8GG	.	.	.	.	.	.	.	.	8aJ	.
4GG]	.	.	.	.	.	.	.	.	8gL	.
.	.	.	.	.	.	.	.	.	8f	.
4GG	.	.	.	.	.	.	.	.	8f	.
.	.	.	.	.	.	.	.	.	8fJ	.
=70	=70	=70	=70	=70	=70	=70	=70	=70	=70	=70
4.C	1r	1r	4.B-	.	4.d	.	4.g	oh	8ddL	.
.	.	.	.	.	.	.	.	.	8cc	.
.	.	.	.	.	.	.	.	.	8cc	.
4.C	.	.	4.B-	.	4.d	.	4.g	oh	[8ccJ	.
.	.	.	.	.	.	.	.	.	4.cc]	.
4GG	.	.	4B-	.	4d	.	4g	oh	.	.
.	.	.	.	.	.	.	.	.	8dd	.
=71	=71	=71	=71	=71	=71	=71	=71	=71	=71	=71
8.DL	1r	1r	1d	.	1f#X	.	1a	yeah~	2dd	.
8.DJ	.	.	.	.	.	.	.	.	.	.
4.D	.	.	.	.	.	.	.	.	.	.
.	.	.	.	.	.	.	.	.	2r	.
4DD	.	.	.	.	.	.	.	.	.	.
=72	=72	=72	=72	=72	=72	=72	=72	=72	=72	=72
*k[f#c#g#]	*k[f#c#g#]	*k[f#c#g#]	*k[f#c#g#]	*	*k[f#c#g#]	*	*k[f#c#g#]	*	*k[f#c#g#]	*
4.AA	1r	1r	4c#	.	4e	.	4a	ず	4b	.
.	.	.	4c#	.	4e	.	4a	っ	4cc#	.
[8AA	.	.	.	.	.	.	.	.	.	.
4AA]	.	.	4c#	.	4e	.	4a	と	4b	.
4AA	.	.	4c#	.	4e	.	4a	ま	4a	.
=73	=73	=73	=73	=73	=73	=73	=73	=73	=73	=73
4.C#	1r	1r	4c#	.	4e#X	.	4g#	え	4b	.
.	.	.	4c#	.	4e#	.	4g#	か	4cc#	.
[8C#	.	.	.	.	.	.	.	.	.	.
4C#]	.	.	2c#	.	2e#	.	2g#	ら	4b	.
4C#	.	.	.	.	.	.	.	.	4a	.
=74	=74	=74	=74	=74	=74	=74	=74	=74	=74	=74
4.FF#	1r	1r	1c#	.	1e	.	1a	woo~	4e	.
.	.	.	.	.	.	.	.	.	8f#L	.
[8FF#	.	.	.	.	.	.	.	.	8f#J	.
4FF#]	.	.	.	.	.	.	.	.	4a	.
4FF#	.	.	.	.	.	.	.	.	8bL	.
.	.	.	.	.	.	.	.	.	8aJ	.
=75	=75	=75	=75	=75	=75	=75	=75	=75	=75	=75
4.EE	1r	1r	4B	.	4d	.	4gn	すき	4cc#	.
.	.	.	4B	.	4d	.	4g	でし	4r	.
8r	.	.	.	.	.	.	.	.	.	.
8.AAL	.	.	2c#	.	2e	.	2a	た	8r	.
.	.	.	.	.	.	.	.	.	8cc#L	.
8.BB	.	.	.	.	.	.	.	.	.	.
.	.	.	.	.	.	.	.	.	8b	.
8C#J	.	.	.	.	.	.	.	.	8aJ	.
=76	=76	=76	=76	=76	=76	=76	=76	=76	=76	=76
4.D	1r	1r	4d	.	4f#	.	4a	せい	4b	.
.	.	.	4d	.	4f#	.	4a	いっ	4cc#	.
[8D	.	.	.	.	.	.	.	.	.	.
4D]	.	.	4d	.	4f#	.	4a	ぱい	4b	.
4D	.	.	4d	.	4f#	.	4a	の	4a	.
=77	=77	=77	=77	=77	=77	=77	=77	=77	=77	=77
4.C#	1r	1r	2e	.	2e	.	2a	oh~	4b	.
.	.	.	.	.	.	.	.	.	4cc#	.
[8C#	.	.	.	.	.	.	.	.	.	.
4C#]	.	.	8c#L	.	8eL	.	8aL	ぜ	8eeL	.
.	.	.	8c#	.	8e	.	8a	ん	8a	.
4C#	.	.	8c#J	.	8eJ	.	8aJ	ぶ	8aJ	.
.	.	.	8r	.	8r	.	8r	.	8r	.
=78	=78	=78	=78	=78	=78	=78	=78	=78	=78	=78
4.BB	1r	1r	8dL	.	8f#L	.	8bL	い	8ddL	.
.	.	.	8d	.	8f#	.	8b	ま	8dd	.
.	.	.	8c#	.	8e	.	8a	す	8cc#	.
[8BB	.	.	8c#J	.	8eJ	.	8aJ	ぐ	8cc#J	.
4BB]	.	.	8BL	.	8dL	.	8g#L	つ	8bL	.
.	.	.	8A	.	8c#	.	8f#	た	8a	.
4BB	.	.	8A	.	8c#	.	8f#	え	8a	.
.	.	.	[8AJ	.	[8c#J	.	[8f#J	た	[8aJ	.
=79	=79	=79	=79	=79	=79	=79	=79	=79	=79	=79
4.EE	1r	1r	8AL]	.	8c#L]	.	8f#L]	.	8aL]	.
.	.	.	8BJ	.	8eJ	.	8g#J	い	8bJ	.
.	.	.	4B	.	4e	.	4g#	の	4b	.
[8EE	.	.	.	.	.	.	.	.	.	.
4EE]	.	.	2r	.	2r	.	2r	.	4r	.
4EE	.	.	.	.	.	.	.	.	8bL	.
.	.	.	.	.	.	.	.	.	8aJ	.
=80	=80	=80	=80	=80	=80	=80	=80	=80	=80	=80
4.AA	1r	1r	1c#	.	1e	.	1a	oh	8bL	.
.	.	.	.	.	.	.	.	.	8b	.
.	.	.	.	.	.	.	.	.	8cc#	.
[8AA	.	.	.	.	.	.	.	.	8cc#J	.
4AA]	.	.	.	.	.	.	.	.	8bL	.
.	.	.	.	.	.	.	.	.	8aJ	.
4AA	.	.	.	.	.	.	.	.	4a	.
=81	=81	=81	=81	=81	=81	=81	=81	=81	=81	=81
4.C#	1r	1r	1B	.	1e#X	.	1g#	.	8ddL	.
.	.	.	.	.	.	.	.	.	8dd	.
.	.	.	.	.	.	.	.	.	8cc#	.
[8C#	.	.	.	.	.	.	.	.	8cc#J	.
4C#]	.	.	.	.	.	.	.	.	8bL	.
.	.	.	.	.	.	.	.	.	8aJ	.
4C#	.	.	.	.	.	.	.	.	4a	.
=82	=82	=82	=82	=82	=82	=82	=82	=82	=82	=82
4.FF#	1r	1r	2c#	.	2e	.	2a	.	8eeL	.
.	.	.	.	.	.	.	.	.	8ff#	.
.	.	.	.	.	.	.	.	.	8ee	.
8FF#	.	.	.	.	.	.	.	.	8eeJ	.
4.EE	.	.	4r	.	4r	.	4r	.	8ddL	.
.	.	.	.	.	.	.	.	.	8dd	.
.	.	.	8r	.	8r	.	8r	.	8cc#	.
[8BB	.	.	[8B	.	[8d#X	.	[8f#	oh	8cc#J	.
=83	=83	=83	=83	=83	=83	=83	=83	=83	=83	=83
8BB]	1r	1r	8B]	.	8d#]	.	8f#]	.	8bL	.
4r	.	.	4r	.	4r	.	4r	.	8b	.
.	.	.	.	.	.	.	.	.	8cc#	.
4BB	.	.	4B	.	4d#X	.	4f#	もう	8bJ	.
.	.	.	.	.	.	.	.	.	8a	.
8BBL	.	.	8B	.	8d#	.	8f#	ない	4a	.
8AA	.	.	4r	.	4r	.	4r	.	.	.
8FF#J	.	.	.	.	.	.	.	.	8r	.
=84	=84	=84	=84	=84	=84	=84	=84	=84	=84	=84
4.BB	1r	1r	1A	.	1d	.	1f#	oh~	8eL	.
.	.	.	.	.	.	.	.	.	8f#	.
.	.	.	.	.	.	.	.	.	8a	.
[8C#	.	.	.	.	.	.	.	.	8f#J	.
4C#]	.	.	.	.	.	.	.	.	8bL	.
.	.	.	.	.	.	.	.	.	8bJ	.
4D	.	.	.	.	.	.	.	.	4cc#	.
=85	=85	=85	=85	=85	=85	=85	=85	=85	=85	=85
1r	1r	1r	1r	.	1r	.	1r	.	1r	.
=86	=86	=86	=86	=86	=86	=86	=86	=86	=86	=86
4.D	1r	1r	4.A	.	4.e	.	4.f#	ah~	8eeL	.
.	.	.	.	.	.	.	.	.	8dd	.
.	.	.	.	.	.	.	.	.	8cc#	.
4.E	.	.	4.B	.	4.e	.	4.g#	.	8ddJ	.
.	.	.	.	.	.	.	.	.	8cc#L	.
.	.	.	.	.	.	.	.	.	8bJ	.
4AA	.	.	4c#	.	4e	.	4a	.	4a	.
=87	=87	=87	=87	=87	=87	=87	=87	=87	=87	=87
4.EE	1r	1r	1B	.	1e	.	1b	ah~	4b	.
.	.	.	.	.	.	.	.	.	8cc#L	.
[8EE	.	.	.	.	.	.	.	.	[8bJ	.
4EE]	.	.	.	.	.	.	.	.	8bL]	.
.	.	.	.	.	.	.	.	.	8a	.
4EE	.	.	.	.	.	.	.	.	8a	.
.	.	.	.	.	.	.	.	.	[8aJ	.
=88	=88	=88	=88	=88	=88	=88	=88	=88	=88	=88
4.AA	1r	1r	1A	.	1e	.	4.dd	fu~	1a]	.
4.AA	.	.	.	.	.	.	[8cc#	.	.	.
.	.	.	.	.	.	.	2cc#]	.	.	.
8r	.	.	.	.	.	.	.	.	.	.
8EE	.	.	.	.	.	.	.	.	.	.
=89	=89	=89	=89	=89	=89	=89	=89	=89	=89	=89
4.AA	2.r	2.r	1A	.	1c#	.	4.b	woo~	4r	.
.	.	.	.	.	.	.	.	.	4a	.
4.AA	.	.	.	.	.	.	[8cc#	.	.	.
.	.	.	.	.	.	.	2cc#]	.	4b	.
4r	4r	4r	.	.	.	.	.	.	4a	.
=90	=90	=90	=90	=90	=90	=90	=90	=90	=90	=90
4.D	1r	1r	4.r	.	4.r	.	4.r	.	2.ee	.
[8D	.	.	[8e	.	[8f#	.	[8a	ha~	.	.
4D]	.	.	2e]	.	2f#]	.	2a]	.	.	.
4D	.	.	.	.	.	.	.	.	4r	.
=91	=91	=91	=91	=91	=91	=91	=91	=91	=91	=91
4.C#	1r	1r	1c#	.	1e	.	1a	ah~	8aL	.
.	.	.	.	.	.	.	.	.	8bJ	.
.	.	.	.	.	.	.	.	.	8cc#L	.
[8C#	.	.	.	.	.	.	.	.	16bL	.
.	.	.	.	.	.	.	.	.	16cc#JJ	.
4C#]	.	.	.	.	.	.	.	.	8b	.
.	.	.	.	.	.	.	.	.	4a	.
4C#	.	.	.	.	.	.	.	.	.	.
.	.	.	.	.	.	.	.	.	8a	.
=92	=92	=92	=92	=92	=92	=92	=92	=92	=92	=92
4.FF#	1r	1r	2c#	.	2f#	.	2a	ah~	2f#	.
[8FF#	.	.	.	.	.	.	.	.	.	.
4FF#]	.	.	8r	.	8r	.	8r	.	8r	.
.	.	.	8F#L	.	8AL	.	8c#L	い	8f#L	.
4FF#	.	.	8c#	.	8f#	.	8a	つ	8cc#	.
.	.	.	8c#J	.	8f#J	.	8aJ	か	8cc#J	.
=93	=93	=93	=93	=93	=93	=93	=93	=93	=93	=93
4EE	1r	1r	[2B	.	[2d	.	[2g#	～	[2b	.
4EE	.	.	.	.	.	.	.	.	.	.
4EE	.	.	8B]	.	8d]	.	8g#]	.	8b]	.
.	.	.	8r	.	8r	.	8r	.	8r	.
4EE	.	.	4r	.	4r	.	4r	.	8bL	.
.	.	.	.	.	.	.	.	.	8cc#J	.
=94	=94	=94	=94	=94	=94	=94	=94	=94	=94	=94
4.BB	1r	1r	1d	.	1f#	.	1b	fu~	8cc#L	.
.	.	.	.	.	.	.	.	.	8dd	.
.	.	.	.	.	.	.	.	.	8dd	.
[8BB	.	.	.	.	.	.	.	.	8ddJ	.
4BB]	.	.	.	.	.	.	.	.	8ddL	.
.	.	.	.	.	.	.	.	.	8cc#	.
4BB	.	.	.	.	.	.	.	.	8b	.
.	.	.	.	.	.	.	.	.	8bJ	.
=95	=95	=95	=95	=95	=95	=95	=95	=95	=95	=95
4.AA	1r	1r	2.c#	.	2.e	.	2.a	woo~	8cc#L	.
.	.	.	.	.	.	.	.	.	8cc#	.
.	.	.	.	.	.	.	.	.	8ee	.
[8AA	.	.	.	.	.	.	.	.	8cc#J	.
4AA]	.	.	.	.	.	.	.	.	8bL	.
.	.	.	.	.	.	.	.	.	8aJ	.
4AA	.	.	8r	.	8r	.	8r	.	8r	.
.	.	.	8E	.	8E	.	8e	ゆ	8e	.
=96	=96	=96	=96	=96	=96	=96	=96	=96	=96	=96
4EE	1r	1r	4E	.	4E	.	4e	め	4e	.
4EE	.	.	8F#L	.	8F#L	.	8f#L	で	8f#L	.
.	.	.	8F#J	.	8F#J	.	8f#J	お	8f#J	.
4EE	.	.	4A	.	4A	.	4a	わ	4a	.
4EE	.	.	8BL	.	8BL	.	8bL	ら	8bL	.
.	.	.	8AJ	.	8AJ	.	8aJ	せ	8aJ	.
=97	=97	=97	=97	=97	=97	=97	=97	=97	=97	=97
4EE	1r	1r	4.c#	.	4.c#	.	4.cc#	た	4.cc#	.
4EE	.	.	.	.	.	.	.	.	.	.
.	.	.	8B	.	8B	.	8b	く	8b	.
4EE	.	.	4B	.	4B	.	4b	な	4b	.
4EE	.	.	8AL	.	8AL	.	8aL	い	8aL	.
.	.	.	8AJ	.	8AJ	.	8aJ	か	8aJ	.
=98	=98	=98	=98	=98	=98	=98	=98	=98	=98	=98
2EE	1r	1r	1c#	.	1e	.	1a	ら	2ee	.
8r	.	.	.	.	.	.	.	.	8r	.
8EEL	.	.	.	.	.	.	.	.	8cc#	.
8GG#	.	.	.	.	.	.	.	.	8.ff#L	.
8BBJ	.	.	.	.	.	.	.	.	.	.
.	.	.	.	.	.	.	.	.	[16eeJk	.
=99	=99	=99	=99	=99	=99	=99	=99	=99	=99	=99
1E	1r	1r	1B	.	1e	.	1g#	ah~	2.ee]	.
.	.	.	.	.	.	.	.	.	4r	.
=100	=100	=100	=100	=100	=100	=100	=100	=100	=100	=100
4EE	1r	1r	1r	.	1r	.	1r	.	1r	.
4r	.	.	.	.	.	.	.	.	.	.
4EE	.	.	.	.	.	.	.	.	.	.
4r	.	.	.	.	.	.	.	.	.	.
=101	=101	=101	=101	=101	=101	=101	=101	=101	=101	=101
4EE	1r	1r	1r	.	1r	.	1r	.	1r	.
4EE	.	.	.	.	.	.	.	.	.	.
8EEL	.	.	.	.	.	.	.	.	.	.
8EEJ	.	.	.	.	.	.	.	.	.	.
4EE	.	.	.	.	.	.	.	.	.	.
=102	=102	=102	=102	=102	=102	=102	=102	=102	=102	=102
4EE	1r	1r	1r	.	1r	.	1r	.	1r	.
4r	.	.	.	.	.	.	.	.	.	.
4EE	.	.	.	.	.	.	.	.	.	.
4r	.	.	.	.	.	.	.	.	.	.
=103	=103	=103	=103	=103	=103	=103	=103	=103	=103	=103
4EE	1r	1r	1r	.	1r	.	1r	.	1r	.
4EE	.	.	.	.	.	.	.	.	.	.
8EEL	.	.	.	.	.	.	.	.	.	.
8EEJ	.	.	.	.	.	.	.	.	.	.
4EE	.	.	.	.	.	.	.	.	.	.
=104	=104	=104	=104	=104	=104	=104	=104	=104	=104	=104
1AA	1r	1r	1c#	.	1e	.	1a	fu~	4b	.
.	.	.	.	.	.	.	.	.	4cc#	.
.	.	.	.	.	.	.	.	.	4b	.
.	.	.	.	.	.	.	.	.	4a	.
=105	=105	=105	=105	=105	=105	=105	=105	=105	=105	=105
1C#	1r	1r	1c#	.	1e#X	.	1g#	woo~	4b	.
.	.	.	.	.	.	.	.	.	4cc#	.
.	.	.	.	.	.	.	.	.	4b	.
.	.	.	.	.	.	.	.	.	4a	.
=106	=106	=106	=106	=106	=106	=106	=106	=106	=106	=106
1FF#	1r	1r	1c#	.	1e	.	1a	fu~	4e	.
.	.	.	.	.	.	.	.	.	8f#L	.
.	.	.	.	.	.	.	.	.	8f#J	.
.	.	.	.	.	.	.	.	.	4a	.
.	.	.	.	.	.	.	.	.	8bL	.
.	.	.	.	.	.	.	.	.	8aJ	.
=107	=107	=107	=107	=107	=107	=107	=107	=107	=107	=107
2EE	1r	1r	2B	.	2d	.	2gn	fu~	4cc#	.
.	.	.	.	.	.	.	.	.	4r	.
2AA	.	.	2c#	.	2e	.	2a	.	8r	.
.	.	.	.	.	.	.	.	.	8cc#L	.
.	.	.	.	.	.	.	.	.	8b	.
.	.	.	.	.	.	.	.	.	8aJ	.
=108	=108	=108	=108	=108	=108	=108	=108	=108	=108	=108
1D	1r	1r	1d	.	1f#	.	1a	.	4b	.
.	.	.	.	.	.	.	.	.	4cc#	.
.	.	.	.	.	.	.	.	.	4b	.
.	.	.	.	.	.	.	.	.	4a	.
=109	=109	=109	=109	=109	=109	=109	=109	=109	=109	=109
1C#	1r	1r	1c#	.	1e	.	1a	.	4b	.
.	.	.	.	.	.	.	.	.	4cc#	.
.	.	.	.	.	.	.	.	.	8eeL	.
.	.	.	.	.	.	.	.	.	8a	.
.	.	.	.	.	.	.	.	.	8aJ	.
.	.	.	.	.	.	.	.	.	8r	.
=110	=110	=110	=110	=110	=110	=110	=110	=110	=110	=110
8BBL	1r	1r	8dL	.	8dL	.	8ddL	い	8ddL	.
8BB	.	.	8d	.	8d	.	8dd	ま	8dd	.
8BB	.	.	8c#	.	8c#	.	8cc#	す	8cc#	.
8BBJ	.	.	8c#J	.	8c#J	.	8cc#J	ぐ	8cc#J	.
8BBL	.	.	8BL	.	8BL	.	8bL	つ	8bL	.
8BB	.	.	8A	.	8A	.	8a	た	8a	.
8BB	.	.	8A	.	8A	.	8a	え	8a	.
[8EEJ	.	.	[8AJ	.	[8c#J	.	[8f#J	た	[8aJ	.
=111	=111	=111	=111	=111	=111	=111	=111	=111	=111	=111
8EEL]	4.r	4.r	8AL]	.	8c#L]	.	8f#L]	い	8aL]	.
8EEJ	.	.	8BJ	.	8eJ	.	8g#J	の	8bJ	.
2.EE	.	.	2.B	.	2.e	.	2.g#	に	2.b	.
.	8r	8r	.	.	.	.	.	.	.	.
.	2r	2r	.	.	.	.	.	.	.	.
=112	=112	=112	=112	=112	=112	=112	=112	=112	=112	=112
4EE	1r	1r	1r	.	1r	.	1r	.	1r	.
4EE	.	.	.	.	.	.	.	.	.	.
8EEL	.	.	.	.	.	.	.	.	.	.
8EEJ	.	.	.	.	.	.	.	.	.	.
4EE	.	.	.	.	.	.	.	.	.	.
=113	=113	=113	=113	=113	=113	=113	=113	=113	=113	=113
1r	1r	1r	1r	.	1r	.	1r	.	4b	.
.	.	.	.	.	.	.	.	.	4cc#	.
.	.	.	.	.	.	.	.	.	4b	.
.	.	.	.	.	.	.	.	.	4a	.
=114	=114	=114	=114	=114	=114	=114	=114	=114	=114	=114
2.r	1r	1r	4c#	.	4e#X	.	4g#	え	4b	.
.	.	.	4c#	.	4e#	.	4g#	か	4cc#	.
.	.	.	2c#	.	2e#	.	2g#	ら	4b	.
4C#	.	.	.	.	.	.	.	.	4a	.
=115	=115	=115	=115	=115	=115	=115	=115	=115	=115	=115
4.FF#	1r	1r	1c#	.	1e	.	1a	woo~	4e	.
.	.	.	.	.	.	.	.	.	8f#L	.
[8FF#	.	.	.	.	.	.	.	.	8f#J	.
4FF#]	.	.	.	.	.	.	.	.	4a	.
4FF#	.	.	.	.	.	.	.	.	8bL	.
.	.	.	.	.	.	.	.	.	8aJ	.
=116	=116	=116	=116	=116	=116	=116	=116	=116	=116	=116
4.EE	1r	1r	4B	.	4d	.	4gn	すき	4cc#	.
.	.	.	4B	.	4d	.	4g	でし	4r	.
8r	.	.	.	.	.	.	.	.	.	.
8.AAL	.	.	2c#	.	2e	.	2a	た	8r	.
.	.	.	.	.	.	.	.	.	8cc#L	.
8.BB	.	.	.	.	.	.	.	.	.	.
.	.	.	.	.	.	.	.	.	8b	.
8C#J	.	.	.	.	.	.	.	.	8aJ	.
=117	=117	=117	=117	=117	=117	=117	=117	=117	=117	=117
4.D	1r	1r	4d	.	4f#	.	4a	せい	4b	.
.	.	.	4d	.	4f#	.	4a	いっ	4cc#	.
[8D	.	.	.	.	.	.	.	.	.	.
4D]	.	.	4d	.	4f#	.	4a	ぱい	4b	.
4D	.	.	4d	.	4f#	.	4a	の	4a	.
=118	=118	=118	=118	=118	=118	=118	=118	=118	=118	=118
4.C#	1r	1r	2c#	.	2e	.	2a	oh~	4b	.
.	.	.	.	.	.	.	.	.	4cc#	.
[8C#	.	.	.	.	.	.	.	.	.	.
4C#]	.	.	8c#L	.	8eL	.	8aL	ぜ	8eeL	.
.	.	.	8c#	.	8e	.	8a	ん	8a	.
4C#	.	.	8c#J	.	8eJ	.	8aJ	ぶ	8aJ	.
.	.	.	8r	.	8r	.	8r	.	8r	.
=119	=119	=119	=119	=119	=119	=119	=119	=119	=119	=119
4.BB	1r	1r	8dL	.	8f#L	.	8bL	い	8ddL	.
.	.	.	8d	.	8f#	.	8b	ま	8dd	.
.	.	.	8c#	.	8e	.	8a	す	8cc#	.
[8BB	.	.	8c#J	.	8eJ	.	8aJ	ぐ	8cc#J	.
4BB]	.	.	8BL	.	8dL	.	8g#L	つ	8bL	.
.	.	.	8A	.	8c#	.	8f#	た	8a	.
4BB	.	.	8A	.	8c#	.	8f#	え	8a	.
.	.	.	[8AJ	.	[8c#J	.	[8f#J	た	[8aJ	.
=120	=120	=120	=120	=120	=120	=120	=120	=120	=120	=120
4.EE	1r	1r	8AL]	.	8c#L]	.	8f#L]	.	8aL]	.
.	.	.	8BJ	.	8eJ	.	8g#J	い	8bJ	.
.	.	.	4B	.	4e	.	4g#	の	4b	.
[8EE	.	.	.	.	.	.	.	.	.	.
4EE]	.	.	2r	.	2r	.	2r	.	4r	.
4EE	.	.	.	.	.	.	.	.	8bL	.
.	.	.	.	.	.	.	.	.	8aJ	.
=121	=121	=121	=121	=121	=121	=121	=121	=121	=121	=121
4.AA	1r	1r	1c#	.	1e	.	1a	oh	8bL	.
.	.	.	.	.	.	.	.	.	8b	.
.	.	.	.	.	.	.	.	.	8cc#	.
[8AA	.	.	.	.	.	.	.	.	8cc#J	.
4AA]	.	.	.	.	.	.	.	.	8bL	.
.	.	.	.	.	.	.	.	.	8aJ	.
4AA	.	.	.	.	.	.	.	.	4a	.
=122	=122	=122	=122	=122	=122	=122	=122	=122	=122	=122
4.C#	1r	1r	1B	.	1e#X	.	1g#	.	8ddL	.
.	.	.	.	.	.	.	.	.	8dd	.
.	.	.	.	.	.	.	.	.	8cc#	.
[8C#	.	.	.	.	.	.	.	.	8cc#J	.
4C#]	.	.	.	.	.	.	.	.	8bL	.
.	.	.	.	.	.	.	.	.	8aJ	.
4C#	.	.	.	.	.	.	.	.	4a	.
=123	=123	=123	=123	=123	=123	=123	=123	=123	=123	=123
4.FF#	1r	1r	2c#	.	2e	.	2a	.	8eeL	.
.	.	.	.	.	.	.	.	.	8ff#	.
.	.	.	.	.	.	.	.	.	8ee	.
8FF#	.	.	.	.	.	.	.	.	8eeJ	.
4.EE	.	.	4r	.	4r	.	4r	.	8ddL	.
.	.	.	.	.	.	.	.	.	8dd	.
.	.	.	8r	.	8r	.	8r	.	8cc#	.
[8BB	.	.	[8B	.	[8d#X	.	[8f#	oh	8cc#J	.
=124	=124	=124	=124	=124	=124	=124	=124	=124	=124	=124
8BB]	1r	1r	8B]	.	8d#]	.	8f#]	.	8bL	.
4r	.	.	4r	.	4r	.	4r	.	8b	.
.	.	.	.	.	.	.	.	.	8cc#	.
4BB	.	.	4B	.	4d#X	.	4f#	もう	8bJ	.
.	.	.	.	.	.	.	.	.	8a	.
8BBL	.	.	8B	.	8d#	.	8f#	ない	4a	.
8AA	.	.	4r	.	4r	.	4r	.	.	.
8FF#J	.	.	.	.	.	.	.	.	8r	.
=125	=125	=125	=125	=125	=125	=125	=125	=125	=125	=125
4.BB	1r	1r	1A	.	1d	.	1f#	oh~	8eL	.
.	.	.	.	.	.	.	.	.	8f#	.
.	.	.	.	.	.	.	.	.	8a	.
[8C#	.	.	.	.	.	.	.	.	8f#J	.
4C#]	.	.	.	.	.	.	.	.	8bL	.
.	.	.	.	.	.	.	.	.	8bJ	.
4D	.	.	.	.	.	.	.	.	4cc#	.
=126	=126	=126	=126	=126	=126	=126	=126	=126	=126	=126
1r	1r	1r	1r	.	1r	.	1r	.	1r	.
=127	=127	=127	=127	=127	=127	=127	=127	=127	=127	=127
4.D	1r	1r	4.A	.	4.e	.	4.f#	ah~	8eeL	.
.	.	.	.	.	.	.	.	.	8dd	.
.	.	.	.	.	.	.	.	.	8cc#	.
4.E	.	.	4.B	.	4.e	.	4.g#	.	8ddJ	.
.	.	.	.	.	.	.	.	.	8cc#L	.
.	.	.	.	.	.	.	.	.	8bJ	.
4AA	.	.	4c#	.	4e	.	4a	.	4a	.
=128	=128	=128	=128	=128	=128	=128	=128	=128	=128	=128
4.EE	1r	1r	1B	.	1e	.	1b	ah~	4b	.
.	.	.	.	.	.	.	.	.	8cc#L	.
[8EE	.	.	.	.	.	.	.	.	[8bJ	.
4EE]	.	.	.	.	.	.	.	.	8bL]	.
.	.	.	.	.	.	.	.	.	8a	.
4EE	.	.	.	.	.	.	.	.	8a	.
.	.	.	.	.	.	.	.	.	8aJ	.
=129	=129	=129	=129	=129	=129	=129	=129	=129	=129	=129
4.AA	4.r	4.r	1c#	.	1e	.	1a	ah~	1a	.
[8AA	8r	8r	.	.	.	.	.	.	.	.
4AA]	2r	2r	.	.	.	.	.	.	.	.
4AA	.	.	.	.	.	.	.	.	.	.
=130	=130	=130	=130	=130	=130	=130	=130	=130	=130	=130
4.C#	1r	1r	1B	.	1e#X	.	1g#	.	2r	.
[8C#	.	.	.	.	.	.	.	.	.	.
4C#]	.	.	.	.	.	.	.	.	4g#	.
4C#	.	.	.	.	.	.	.	.	4a	.
=131	=131	=131	=131	=131	=131	=131	=131	=131	=131	=131
4.FF#	1r	1r	1c#	.	1f#	.	1a	.	2.b	.
[8FF#	.	.	.	.	.	.	.	.	.	.
4FF#]	.	.	.	.	.	.	.	.	.	.
4FF#	.	.	.	.	.	.	.	.	8cc#L	.
.	.	.	.	.	.	.	.	.	8cc#J	.
=132	=132	=132	=132	=132	=132	=132	=132	=132	=132	=132
4EE	1r	1r	4B	.	4d	.	4gn	go	4dd	.
4EE	.	.	4B	.	4d	.	4g	go	8cc#L	.
.	.	.	.	.	.	.	.	.	[8bJ	.
4AA	.	.	8c#L	.	8eL	.	8aL	go	4b]	.
.	.	.	8c#J	.	8eJ	.	8aJ	for	.	.
4AA	.	.	4c#	.	4e	.	4a	it	8cc#L	.
.	.	.	.	.	.	.	.	.	[8cc#J	.
=133	=133	=133	=133	=133	=133	=133	=133	=133	=133	=133
4.D	1r	1r	4r	.	4r	.	4r	.	1cc#_	.
.	.	.	2.c#	.	2.f#	.	2.a	yeah~	.	.
[8D	.	.	.	.	.	.	.	.	.	.
4D]	.	.	.	.	.	.	.	.	.	.
4D	.	.	.	.	.	.	.	.	.	.
=134	=134	=134	=134	=134	=134	=134	=134	=134	=134	=134
4.C#	1r	1r	1c#	.	1e	.	1a	.	4cc#]	.
.	.	.	.	.	.	.	.	.	4r	.
[8C#	.	.	.	.	.	.	.	.	.	.
4C#]	.	.	.	.	.	.	.	.	8r	.
.	.	.	.	.	.	.	.	.	8cc#	.
4C#	.	.	.	.	.	.	.	.	8bL	.
.	.	.	.	.	.	.	.	.	16cc#L	.
.	.	.	.	.	.	.	.	.	16bJJ	.
=135	=135	=135	=135	=135	=135	=135	=135	=135	=135	=135
4.BB	1r	1r	1d	.	1f#	.	1a	.	2.a	.
[8BB	.	.	.	.	.	.	.	.	.	.
4BB]	.	.	.	.	.	.	.	.	.	.
4BB	.	.	.	.	.	.	.	.	4r	.
=136	=136	=136	=136	=136	=136	=136	=136	=136	=136	=136
8EL	1r	1r	4.e	.	4.g#	.	4.b	da	1r	.
8EJ	.	.	.	.	.	.	.	.	.	.
8r	.	.	.	.	.	.	.	.	.	.
2EE	.	.	2e	.	2g#	.	2b	ta	.	.
8r	.	.	8r	.	8r	.	8r	.	.	.
=137	=137	=137	=137	=137	=137	=137	=137	=137	=137	=137
2.AA	1r	1r	1A	.	1e	.	1a	fu~	4.dd	fu~
.	.	.	.	.	.	.	.	.	[8cc#	.
.	.	.	.	.	.	.	.	.	2cc#]	.
8r	.	.	.	.	.	.	.	.	.	.
8EE	.	.	.	.	.	.	.	.	.	.
=138	=138	=138	=138	=138	=138	=138	=138	=138	=138	=138
1AA	2.r	2.r	1A	.	1c#	.	1a	.	4.b	woo~
.	.	.	.	.	.	.	.	.	[8cc#	.
.	.	.	.	.	.	.	.	.	2cc#]	.
.	4r	4r	.	.	.	.	.	.	.	.
==	==	==	==	==	==	==	==	==	==	==
*-	*-	*-	*-	*-	*-	*-	*-	*-	*-	*-
